Printex-remake/img/icons/catalog_small/12.svg

<svg width="115" height="87" viewBox="0 0 115 87" fill="none" xmlns="http://www.w3.org/2000/svg">
<g clip-path="url(#clip0)">
<path d="M71.2154 8.87764L114 30.1795L101.997 37.0801L71.2154 8.87764Z" fill="#C7E0ED"/>
<path d="M96.3692 44.8505C93.5558 48.0827 87.856 50.0464 83.6383 49.2365C79.4206 48.4265 89.2346 47.2871 92.048 44.0549C94.8614 40.8227 89.6089 36.7216 93.8266 37.5315C98.0442 38.3414 99.1826 41.6183 96.3692 44.8505Z" fill="#C7E0ED"/>
<path d="M58.5658 29.7732L5.69211 60.3675L37.6576 78.8818L90.5313 48.2874L93.4498 45.4006C95.3312 43.2594 96.2495 40.4936 96.4735 39.3784L96.8095 38.7093C96.0032 35.7651 97.5934 33.0216 98.4893 32.0179C100.908 28.0031 103.529 27.6685 104.537 28.0031L75.4106 10.8242C73.2604 9.48594 71.827 9.37443 71.379 9.48596C69.4976 9.48596 67.4594 11.7164 66.6754 12.8317C64.6596 14.8391 64.3236 20.8613 64.3236 21.1958C64.0549 24.4077 60.3731 28.2523 58.5658 29.7732Z" fill="#D4EEFC"/>
<ellipse rx="7.77632" ry="7.75897" transform="matrix(0.982056 0.188588 -0.656547 0.754286 105.788 34.8395)" fill="#C7E0ED"/>
<path d="M56.7831 28.8854L2.17871 60.2775L35.9271 79.6794L90.5315 48.2874" stroke="black" stroke-linejoin="bevel"/>
<path d="M71.276 8.59816L104.017 27.6656" stroke="black" stroke-linejoin="bevel"/>
<path d="M96.5352 37.7052C96.5351 41.5851 93.7997 46.3032 90.4256 48.2433" stroke="black" stroke-linejoin="bevel"/>
<path d="M62.8768 17.6313C62.8767 21.8913 59.8961 27.0584 56.2195 29.1724" stroke="black" stroke-linejoin="bevel"/>
<path d="M96.4734 37.8718C96.4735 34.3614 98.9484 30.0927 102.001 28.3374" stroke="black" stroke-linejoin="bevel"/>
<path d="M62.8768 17.8463C62.8769 14.6459 65.1332 10.7542 67.9163 9.15396C69.3106 8.35227 70.5726 8.27774 71.4849 8.80538" stroke="black" stroke-linejoin="bevel"/>
<ellipse rx="5.81301" ry="5.79479" transform="matrix(0.866912 -0.498461 -3.20243e-05 1 101.513 34.3537)" stroke="black" stroke-linejoin="bevel"/>
<ellipse rx="1.62348" ry="1.61839" transform="matrix(0.866912 -0.498461 -3.20242e-05 1 101.513 34.3536)" stroke="black" stroke-linejoin="bevel"/>
<rect width="24.6697" height="11.9282" transform="matrix(0.866944 -0.498406 0.866944 0.498406 15.498 57.571)" fill="white" stroke="black" stroke-linejoin="bevel"/>
<path d="M51.1489 54.1531L29.7617 66.4486" stroke="black" stroke-linejoin="bevel"/>
<path d="M53.8237 56.8164L32.4365 69.1119" stroke="black" stroke-linejoin="bevel"/>
<path d="M60.0716 46.9181L72.3545 40.0749C75.1218 38.5332 77.2181 36.6382 78.4734 34.5436L79.5949 32.6722L89.936 38.6172L88.8145 40.4887C87.5592 42.5833 85.4629 44.4783 82.6956 46.02L70.4127 52.8632L60.0716 46.9181Z" fill="white" stroke="black" stroke-linejoin="bevel"/>
<path d="M75.9836 30.1839L74.8621 32.0553C73.6068 34.1499 71.5105 36.0449 68.7432 37.5867L56.4603 44.4298" stroke="black" stroke-linejoin="bevel"/>
<path d="M72.4172 28.4084L71.2957 30.2798C70.0404 32.3744 67.9441 34.2694 65.1768 35.8111L52.8939 42.6543" stroke="black" stroke-linejoin="bevel"/>
</g>
<defs>
<clipPath id="clip0">
<rect width="115" height="87" fill="white"/>
</clipPath>
</defs>
</svg>

<svg width="115" height="87" fill="none" xmlns="http://www.w3.org/2000/svg"><g clip-path="url(#clip0)"><path d="M71.215 8.878L114 30.18l-12.003 6.9L71.215 8.878zM96.37 44.85c-2.814 3.233-8.514 5.196-12.732 4.386-4.217-.81 5.597-1.949 8.41-5.181 2.813-3.232-2.44-7.333 1.779-6.523 4.217.81 5.356 4.086 2.542 7.319z" fill="#C7E0ED"/><path d="M58.566 29.773L5.692 60.368l31.966 18.514L90.53 48.287l2.919-2.886c1.881-2.142 2.8-4.907 3.023-6.023l.337-.669c-.807-2.944.783-5.687 1.68-6.691 2.418-4.015 5.039-4.35 6.047-4.015L75.411 10.824c-2.15-1.338-3.584-1.45-4.032-1.338-1.881 0-3.92 2.23-4.704 3.346-2.015 2.007-2.351 8.03-2.351 8.364-.27 3.212-3.95 7.056-5.758 8.577z" fill="#D4EEFC"/><ellipse rx="7.776" ry="7.759" transform="matrix(.98206 .18859 -.65655 .75429 105.788 34.84)" fill="#C7E0ED"/><path d="M56.783 28.885L2.18 60.278l33.748 19.401 54.604-31.392M71.276 8.598l32.741 19.068m-7.482 10.039c0 3.88-2.735 8.598-6.11 10.538M62.877 17.631c0 4.26-2.98 9.427-6.658 11.541m40.254 8.7c0-3.51 2.475-7.78 5.528-9.535" stroke="#000" stroke-linejoin="bevel"/><path d="M62.877 17.846c0-3.2 2.256-7.092 5.04-8.692 1.394-.802 2.656-.876 3.568-.349" stroke="#000" stroke-linejoin="bevel"/><ellipse rx="5.813" ry="5.795" transform="matrix(.86691 -.49846 -.00003 1 101.513 34.354)" stroke="#000" stroke-linejoin="bevel"/><ellipse rx="1.623" ry="1.618" transform="matrix(.86691 -.49846 -.00003 1 101.513 34.354)" stroke="#000" stroke-linejoin="bevel"/><path transform="scale(1.22604 .70484) rotate(-45 104.914 25.58)" fill="#fff" stroke="#000" stroke-linejoin="bevel" d="M0 0h24.67v11.928H0z"/><path d="M51.149 54.153L29.762 66.45m24.062-9.634L32.437 69.112" stroke="#000" stroke-linejoin="bevel"/><path d="M60.072 46.918l12.282-6.843c2.768-1.542 4.864-3.437 6.12-5.531l1.12-1.872 10.342 5.945-1.122 1.872c-1.255 2.094-3.351 3.99-6.118 5.531l-12.283 6.843-10.341-5.945z" fill="#fff" stroke="#000" stroke-linejoin="bevel"/><path d="M75.984 30.184l-1.122 1.871c-1.255 2.095-3.352 3.99-6.119 5.532L56.46 44.43m15.957-16.022l-1.121 1.872c-1.256 2.094-3.352 3.99-6.12 5.531l-12.282 6.843" stroke="#000" stroke-linejoin="bevel"/></g><defs><clipPath id="clip0"><path fill="#fff" d="M0 0h115v87H0z"/></clipPath></defs></svg>
